X: 16937
T: Hawk Polka, The
R: barndance
M: 4/4
K: Dmajor
z|A (3A/B/A/ FA|dA/d/ f/e/d/c/|B (3B/c/B/ GB|e/B/g/f/ e/d/c/B/|
A (3A/B/A/ FA|dA/d/ f/e/d|e (3e/^d/e/ gc|ed d:|
|:g|f/g/a/b/ a/f/g/b/|a/A/d/f/ a/g/f|e/f/g- ge|d/e/f f/A/d/e/|
f/g/a/b/ a/f/g/b/|a/A/d/f/ a/g/f|e (3e/^d/e/ gc|ed d:|
|:d|d/d'/b/g/ d/B/G/B/|d/d'/b/g/ dB|d/=c/A- Ac|e/d/c/d/ Bd|
d/d'/b/g/ d/B/G/B/|d/d'/b/g/ d2|d/e/f f/g/a|ag g:|

